X:1
T:Miss Clementina Loughnan
T:Miss Clementina Loughnan
T:Miss Clementina Loughman Miss Clementina Loughlan Miss Clementina Longham
T:Nathaniel Gow
C:Nathaniel Gow
L:1/8
M:2/4
K:F
V:1 treble 
V:1
 A/"A"B/ | Tc2 f>d |{d} cB/A/ cd/e/ |{e} f>d cA |{A} G2- GA/B/ | Tc2 f>d |{d} cB/A/ ca/g/ | %7
 Tfd TcA |{A} [CF]2- [CF] :| c/"B"B/ | TA>B cc | dB Bd |{d} c{B}A fA |{A} G2- Gc/B/ | TA>B cc | %15
 dB dg | (eg) ce | Tf2{ef} Fc/B/ | TA>B cc | dB Bd | ca/g/ fA |{A} G2- Gc/B/ | Ac f_e dB gB | %23
 (b/a/)g/f/ (c/f/)(e/g/) | Tf2{ef} F |: c/"C"B/ | TA[A,F] [A,F][A,F] | T[A,F]>[CG] [FA]>[GB] | %28
 cc{d} cB/A/ | (AG) Gc/B/ | AF FA | (Bd) (GB) | (Ac) (EG) | T[CF]2 [CF] :|"D" c | f2{a} gf/g/ | %36
{fg} a>g fd |{d} cB/A/ fa |{a} g2 Tga | Tf>a{a} gf/g/ |{fg} a>g fd |{d} cB/A/{A} fA | [CF]2 [CF]c | %43
 f2{a} gf/g/ |{fg} a>g fc | Bg Af | TG>A Bd | (ca) Ac | df Bb |{b} ag/f/ c/f/e/g/ | Tf2{ef} F |] %51

